resources/svg/expand-o.svg

<svg xmlns="http://www.w3.org/2000/svg" viewBox="0 0 15 15" fill="none"><path d="M13.5 13.5H10m3.5 0V10m0 3.5l-4-4m.5-8h3.5m0 0V5m0-3.5l-4 4M5 1.5H1.5m0 0V5m0-3.5l4 4m-4 4.5v3.5m0 0H5m-3.5 0l4-4" stroke="currentColor"/></svg>

<svg xmlns="http://www.w3.org/2000/svg" viewBox="0 0 15 15" fill="none"><path d="M13.5 13.5H10M13.5 13.5L13.5 10M13.5 13.5L9.5 9.5M10 1.5H13.5M13.5 1.5V5M13.5 1.5L9.5 5.5M5 1.5H1.5M1.5 1.5V5M1.5 1.5L5.5 5.5M1.5 10V13.5M1.5 13.5H5M1.5 13.5L5.5 9.5" stroke="black"/></svg>
